X: 1477
T: Nigaha Ruhsat
C: Zaharya
O: Turkey
F: http://compmusic.upf.edu/node/140
N: huseyni--beste--cenber--nigaha_ruhsat--zaharya
N: makam= huseyni
N: form= beste
N: usul= cenber = 24/4
M: 24/4
L: 1/16
K: C _2/4B ^3/4f  
Q: 1/4=78
%%MIDI tuningsystem comma53
d2 d4 e2 e4 z4  | de de ^f2 g2 fg f2 e4  | \
w:   |   | 
z2 d4 e2 e3/2=f/ ed c_1/4B c2  | 
w:   | 
e2 d4 e2 d2 e2 dc c2  | d2 c_1/4B AB AB c2 de dc Bc  | 
w:   |   | 
_1/4B2 A2 A12  | z4 d2 c_1/4B A2 G2 ^F2 G2  | \
w:   |   | 
^FE F2 G2 A4 e3d ed  | c_1/4B ed cB c4 G2 d4  | 
w:   |   | 
e2 e2 g2 =f2 e2 d2 ^c2 _B2  | A2 z2 e4 ^f2 d4 a3g g2 fg f2 e2 e6  | 
w:   |   | 
z2 e3d c2 d2 e6  | z2 a3g ^fe d2 z2 ef e2  | \
w:   |   | 
^f2 g3a fe d2 z2 cd c2  | 
w:   | 
d2 e=f ed cd c_1/4B A2 AG A2  | _1/4B2 c3B c2 e2 d3c B2  | 
w:   |   | 
c2 _1/4B4 A4 z2 c4  | d2 c_1/4B c3B B2 BA A3G  | \
w:   |   | 
A3/2c/ _1/4BA AG ^FG FG AF G4  | 
w:   | 
d2 c_1/4B c3B ed cB A6 e2 e2 e2 d2 e2 d3c  | \
w:   | 
_1/4B2 c2 B4 A4 A2 c4 BA A12  | 
w:   | 
z4 a2 a4 e2 a8 z2 a4 _1/4b2 a4  | \
w:   | 
^g4 =f4 e4 d4  | c4 z2 e=f e2 d2 c2 ^1/4B2  | 
w:   |   | 
d2 c2 ^1/4B2 c2 d2 cB A2 z2  | ^1/4B2 ^F2 G2 A8 z8 d2 c_1/4B A2 G2 G2  | \
w:   |   | 
_1/4B2 B2 B2 A2 B2 AG A2 c2  | 
w:   | 
_1/4BA AG ^FG F2 z2 d2 cB c4 G2 d4 e2 z2 g2 ^f2  | \
w:   | 
e2 d2 ^c2 _B2 A2 z2 e4  | 
w:   | 
^f2 d4 a3g g2 fg f2  | e2 e6 z2 e3d c2  | \
w:   |   | 
d2 e6 z2 a3g ^fe  | 
w:   | 
d2 z2 e^f e2 f2 g3a fe  | d2 z2 cd c2 d2 e=f ed cd  | 
w:   |   | 
c_1/4B A2 AG A2 B2 c3B c2  | e2 d3c _1/4B2 c2 B4 A4 z2 c4 d2 cB c3B  | 
w:   |   | 
_1/4B2 BA A3G A3/2c/ BA AG ^FG  | \
w:   | 
^FG AF G4 d2 c_1/4B c3B  | 
w:   | 
ed c_1/4B A6 e2 e2 e2  | d2 e2 d3c _1/4B2 c2 B4  | \
w:   |   | 
A4 A2 c4 _1/4BA A12 z4 a2 a4 e2 a8 z2 a4 _1/4b2 a4 ^g4 =f4  | 
w:   | 
e4 d4 c4 z2 e=f  | e2 d2 c2 ^1/4B2 d2 c2 B2 c2  | \
w:   |   | 
d2 c^1/4B A2 z2 B2 ^F2 G2 A8 z8 d2  | 
w:   | 
c_1/4B A2 G2 G2 B2 B2 B2 A2  | _1/4B2 AG A2 c2 BA AG ^FG F2  | 
w:   |   | 
z2 d2 c_1/4B c4 G2 d4  | e2 z2 g2 ^f2 e2 d2 ^c2 _B2  | \
w:   |   | 
A2 z2 e4 ^f2 d4 a3g g2 fg f2 e2 e6  | 
w:   | 
z2 |


